X: 27081
T: Miss Johnstone's
R: slip jig
M: 9/8
K: Gmajor
|:B3 c2 A G3|D2 G B2 A G2 g|f3 c2 A G3|F3 A2 B cBA:|
|:B2 d c2 e d3|B2 d g2 a b2 g|1 B2 d c2 e d3|a3 f2 a gfe:|2 a3 a2 g f2 c'|bb/a/g fed cBA||

